!!!COM: Gabriel Faure/
!!!CNT: Francais
!!!TXO: Francais
!!!OTL: "Madrigal (from Shylock"
!!!LYR: Haraurcourt
!!!OPR: 
!!!OPS: Op. 57
!!!ONM: No. 2
!!!ENC: Emily Thomas
!!!YOR: CD Sheet Music French Art Songs, The Ultimate Collection
!!!YOR: CD Sheet Music, LLC 2003
!!!ODT: 1889/
!!NB: Vocal melody and text encoded.
**kern	**silbe
=1	=1
*clefG2	*
*k[b-e-a-]	*
*M3/4	*
*MM[Allegretto]	*
2.r	.
=2	=2
2.r	.
=3	=3
2.r	.
=4	=4
2.r	.
=5	=5
2.r	.
=6	=6
2.r	.
=7	=7
2.r	.
=8	=8
2.r	.
=9	=9
{4b-	Cel-
8cc	-le
8dd	que
4ee-	j'ai-
=10	=10
4ee-	-mea
8dd	de
8cc	beau-
4g	-te/
=11	=11
8g	Plus
8a-	que
4b-	Flore
8e-	et
8f	plus
=12	=12
8g	que
8a-	Po-
4.b-	-mo-
8b-}	-ne,}
=13	=13
{8f	{Et
8g	je
4a-	said
8b-	pour
8cc	l'a-
=14	=14
8b-	-voir
8a-	chan-
2g}	-te/}
=15	=15
{8b-	{Que
8b-	sa
4an	bouche
8g	est
8f#	le
=16	=16
8g	soir
8an	d'au-
4.b-	-tomne
8b-	Et
=17	=17
8dd	son
8dd	re-
4.cc	-gard
8b-	la
=18	=18
4.an	nuit
8g	d'e/-
[4f	-te/
=19	=19
4f]}	|}
4r	.
4r	.
=20	=20
4r	.
{4b-	{Pour
4b-	mar-
=21	=21
4cc	-raine
8b-	elle
8an	eut
8g	A-
8an	-star-
=22	=22
2.b-}	-te/,}
=23	=23
4r	.
{4b-	{Pour
4b-	pa-
=24	=24
4cc-	-tronne
8b-	elle
8a-	a
8g-	la
8a-	ma-
=25	=25
2b-	-do-
4b-}	-ne}
=26	=26
{4g-	{Car
4a-	elle
4b-	est
=27	=27
4.cc-	belle
8dd-	au-
8dd-	-tant
8cc	que
=28	=28
2cc-	bon-
4b-	-ne
=29	=29
4ee-	cel-
4dd-	-le
4b-	que
=30	=30
[2.a-	j'ai-
=31	=31
2.a-]	|
=32	=32
2.b-}	-me!}
=33	=33
{8b-	{Elle
8cc	e/-
4dd	-cou-
4ee-	-te,
=34	=34
4ee-	rit,
8dd	et
8cc	par
8g	don-
8g}	-ne,}
=35	=35
{8g	{N'e/-
8a-	-cou-
4b-	-tant
8e-	que
8f	par
=36	=36
8g	cha-
8a-	-ri-
2b-}	-te/:}
=37	=37
{8f	{Elle
8g	e/-
4a-	-cou-
8b-	-te
8cc	mais
=38	=38
8b-	sa
8a-	fier-
4.g}	-te/}
{8g	{N'e/-
=39	=39
4b-	-cou-
8an	-te,
8an	-ni
4f#	moi
=40	=40
8g	ni
8an	per-
4.b-	-son-
8b-}	-ne}
=41	=41
4r	.
{4cc	{Et
8b-	rien
8g	en-
=42	=42
4.cc	-co-
8b-	-re
8g	n'a
8e-	ten-
=43	=43
2.f}	-te/}
=44	=44
{2g	{Cel-
8cc	-le
8cc	que
=45	=45
2.cc	j'ai-
=46	=46
2.b-	|
=47	=47
[2.ee-	-me!
=48	=48
2.ee-]}	|}
==	==
*-	*-
